MixerControl-app/src/img/lnr-cart.svg

<?xml version="1.0" encoding="utf-8"?>
<!-- Generated by IcoMoon.io -->
<!DOCTYPE svg PUBLIC "-//W3C//DTD SVG 1.1//EN" "http://www.w3.org/Graphics/SVG/1.1/DTD/svg11.dtd">
<svg version="1.1" xmlns="http://www.w3.org/2000/svg" xmlns:xlink="http://www.w3.org/1999/xlink" width="20" height="20" viewBox="0 0 20 20">
<path fill="#000000" d="M8 20c-1.103 0-2-0.897-2-2s0.897-2 2-2 2 0.897 2 2-0.897 2-2 2zM8 17c-0.551 0-1 0.449-1 1s0.449 1 1 1 1-0.449 1-1-0.449-1-1-1z"></path>
<path fill="#000000" d="M15 20c-1.103 0-2-0.897-2-2s0.897-2 2-2 2 0.897 2 2-0.897 2-2 2zM15 17c-0.551 0-1 0.449-1 1s0.449 1 1 1 1-0.449 1-1-0.449-1-1-1z"></path>
<path fill="#000000" d="M17.539 4.467c-0.251-0.297-0.63-0.467-1.039-0.467h-12.243l-0.099-0.596c-0.131-0.787-0.859-1.404-1.658-1.404h-1c-0.276 0-0.5 0.224-0.5 0.5s0.224 0.5 0.5 0.5h1c0.307 0 0.621 0.266 0.671 0.569l1.671 10.027c0.131 0.787 0.859 1.404 1.658 1.404h10c0.276 0 0.5-0.224 0.5-0.5s-0.224-0.5-0.5-0.5h-10c-0.307 0-0.621-0.266-0.671-0.569l-0.247-1.48 9.965-0.867c0.775-0.067 1.483-0.721 1.611-1.489l0.671-4.027c0.067-0.404-0.038-0.806-0.289-1.102zM16.842 5.404l-0.671 4.027c-0.053 0.316-0.391 0.629-0.711 0.657l-10.043 0.873-0.994-5.962h12.076c0.117 0 0.215 0.040 0.276 0.113s0.085 0.176 0.066 0.291z"></path>
</svg>

<?xml version="1.0" encoding="UTF-8" standalone="no"?>
<!DOCTYPE svg PUBLIC "-//W3C//DTD SVG 1.1//EN" "http://www.w3.org/Graphics/SVG/1.1/DTD/svg11.dtd">
<svg width="100%" height="100%" viewBox="0 0 20 20" version="1.1" xmlns="http://www.w3.org/2000/svg" xmlns:xlink="http://www.w3.org/1999/xlink" xml:space="preserve" style="fill-rule:evenodd;clip-rule:evenodd;stroke-linejoin:round;stroke-miterlimit:1.41421;">
    <g>
        <g transform="matrix(1,0,0,1,0.575615,-1)">
            <path d="M8,20C6.897,20 6,19.103 6,18C6,16.897 6.897,16 8,16C9.103,16 10,16.897 10,18C10,19.103 9.103,20 8,20ZM8,17C7.449,17 7,17.449 7,18C7,18.551 7.449,19 8,19C8.551,19 9,18.551 9,18C9,17.449 8.551,17 8,17Z" style="fill-rule:nonzero;"/>
        </g>
        <g transform="matrix(1,0,0,1,0.575615,-1)">
            <path d="M15,20C13.897,20 13,19.103 13,18C13,16.897 13.897,16 15,16C16.103,16 17,16.897 17,18C17,19.103 16.103,20 15,20ZM15,17C14.449,17 14,17.449 14,18C14,18.551 14.449,19 15,19C15.551,19 16,18.551 16,18C16,17.449 15.551,17 15,17Z" style="fill-rule:nonzero;"/>
        </g>
        <g transform="matrix(1,0,0,1,0.575615,-1)">
            <path d="M17.539,4.467C17.288,4.17 16.909,4 16.5,4L4.257,4L4.158,3.404C4.027,2.617 3.299,2 2.5,2L1.5,2C1.224,2 1,2.224 1,2.5C1,2.776 1.224,3 1.5,3L2.5,3C2.807,3 3.121,3.266 3.171,3.569L4.842,13.596C4.973,14.383 5.701,15 6.5,15L16.5,15C16.776,15 17,14.776 17,14.5C17,14.224 16.776,14 16.5,14L6.5,14C6.193,14 5.879,13.734 5.829,13.431L5.582,11.951L15.547,11.084C16.322,11.017 17.03,10.363 17.158,9.595L17.829,5.568C17.896,5.164 17.791,4.762 17.54,4.466L17.539,4.467ZM16.842,5.404L16.171,9.431C16.118,9.747 15.78,10.06 15.46,10.088L5.417,10.961L4.423,4.999L16.499,4.999C16.616,4.999 16.714,5.039 16.775,5.112C16.836,5.185 16.86,5.288 16.841,5.403L16.842,5.404Z" style="fill-rule:nonzero;"/>
        </g>
    </g>
</svg>
